src/assets/flags/cc.svg

<?xml version="1.0" encoding="UTF-8"?>
<svg xmlns="http://www.w3.org/2000/svg" xmlns:xlink="http://www.w3.org/1999/xlink" width="25px" height="px" viewBox="0 0 25 19" version="1.1">
<g id="surface1">
<rect x="0" y="0" width="25" height="19" style="fill:rgb(0%,50.196081%,0%);fill-opacity:1;stroke:none;"/>
<path style=" stroke:none;fill-rule:nonzero;fill:rgb(100%,87.843138%,0%);fill-opacity:1;" d="M 15.105469 9.5 C 15.105469 8.042969 13.9375 6.859375 12.5 6.859375 C 11.0625 6.859375 9.894531 8.042969 9.894531 9.5 C 9.894531 10.957031 11.0625 12.140625 12.5 12.140625 C 13.9375 12.140625 15.105469 10.957031 15.105469 9.5 Z M 15.105469 9.5 "/>
<path style=" stroke:none;fill-rule:nonzero;fill:rgb(0%,50.196081%,0%);fill-opacity:1;" d="M 15.457031 9.5 C 15.457031 8.300781 14.496094 7.328125 13.3125 7.328125 C 12.128906 7.328125 11.167969 8.300781 11.167969 9.5 C 11.167969 10.699219 12.128906 11.671875 13.3125 11.671875 C 14.496094 11.671875 15.457031 10.699219 15.457031 9.5 Z M 15.457031 9.5 "/>
<path style=" stroke:none;fill-rule:nonzero;fill:rgb(100%,87.843138%,0%);fill-opacity:1;" d="M 7.015625 6.859375 C 7.015625 5.332031 5.792969 4.097656 4.289062 4.097656 C 2.785156 4.097656 1.5625 5.332031 1.5625 6.859375 C 1.5625 8.386719 2.785156 9.621094 4.289062 9.621094 C 5.792969 9.621094 7.015625 8.386719 7.015625 6.859375 Z M 7.015625 6.859375 "/>
<path style="fill-rule:nonzero;fill:rgb(50.196081%,12.54902%,0%);fill-opacity:1;stroke-width:1.5;stroke-linecap:butt;stroke-linejoin:miter;stroke:rgb(48.235294%,19.215687%,0%);stroke-opacity:1;stroke-miterlimit:4;" d="M 105 225.986842 L 122.5 225.986842 C 122.5 225.986842 123.2 224.407895 122.3 223.618421 C 121.3 222.828947 117.6 222.631579 118.6 219.769737 C 120.6 214.046053 121 215.822368 122.3 202.006579 C 123.3 190.164474 123.9 178.322368 124.3 166.480263 L 121.7 166.480263 C 121.7 166.480263 122.2 173.190789 120.7 181.973684 C 119.3 190.756579 118.8 191.546053 117.2 198.256579 C 116.4 202.105263 115.3 205.855263 113.9 209.506579 C 112.5 213.453947 112.3 213.552632 110.1 217.302632 C 107.8 220.855263 108.6 219.473684 107.4 221.743421 C 106.7 222.828947 106 222.532895 105.5 223.322368 C 105 224.111842 105 225.986842 105 225.986842 Z M 105 225.986842 " transform="matrix(0.0390625,0,0,0.0395833,0,0)"/>
<path style=" stroke:none;fill-rule:nonzero;fill:rgb(0%,50.196081%,0%);fill-opacity:1;" d="M 4.621094 4.847656 C 4.628906 4.972656 4.613281 5.097656 4.574219 5.214844 C 4.519531 5.335938 4.488281 5.46875 4.484375 5.601562 C 4.414062 5.625 4.339844 5.445312 4.269531 5.554688 C 4.320312 5.699219 4.441406 5.816406 4.519531 5.945312 C 4.535156 5.984375 4.652344 6.09375 4.582031 6.117188 C 4.414062 6.054688 4.371094 5.839844 4.269531 5.707031 C 4.148438 5.480469 3.917969 5.328125 3.664062 5.3125 C 3.566406 5.316406 3.257812 5.292969 3.335938 5.457031 C 3.453125 5.539062 3.601562 5.59375 3.71875 5.683594 C 3.808594 5.691406 3.964844 5.84375 3.957031 5.898438 C 3.800781 5.835938 3.730469 5.757812 3.566406 5.691406 C 3.339844 5.605469 3.03125 5.65625 2.902344 5.882812 C 2.882812 5.941406 2.847656 6.113281 2.921875 6.132812 C 3.007812 5.996094 3.128906 5.84375 3.308594 5.886719 C 3.449219 5.898438 3.152344 6.152344 3.265625 6.101562 C 3.304688 6.082031 3.382812 6.027344 3.445312 6.019531 C 3.503906 6.019531 3.535156 6.058594 3.578125 6.066406 C 3.667969 6.078125 3.695312 6.117188 3.683594 6.140625 C 3.671875 6.164062 3.644531 6.140625 3.554688 6.171875 C 3.511719 6.1875 3.488281 6.226562 3.4375 6.246094 C 3.386719 6.265625 3.273438 6.265625 3.234375 6.246094 C 3.089844 6.1875 2.855469 6.195312 2.8125 6.375 C 2.8125 6.457031 2.742188 6.367188 2.710938 6.40625 C 2.683594 6.492188 2.679688 6.578125 2.554688 6.570312 C 2.476562 6.648438 2.398438 6.738281 2.296875 6.796875 C 2.355469 6.929688 2.582031 6.660156 2.570312 6.777344 C 2.472656 6.914062 2.625 6.941406 2.6875 6.835938 C 2.800781 6.71875 2.941406 6.570312 3.105469 6.695312 C 3.183594 6.769531 3.230469 6.652344 3.289062 6.652344 C 3.328125 6.753906 3.371094 6.660156 3.414062 6.632812 C 3.480469 6.625 3.460938 6.722656 3.539062 6.660156 C 3.699219 6.554688 3.894531 6.644531 4.050781 6.542969 C 4.21875 6.464844 4.074219 6.601562 4.03125 6.65625 C 3.957031 6.800781 4.019531 6.992188 3.863281 7.078125 C 3.796875 7.246094 3.9375 7.472656 3.796875 7.601562 C 3.777344 7.679688 3.976562 7.671875 4.03125 7.703125 C 4.132812 7.703125 4.03125 7.472656 4.128906 7.441406 C 4.261719 7.519531 4.253906 7.292969 4.226562 7.21875 C 4.242188 7.0625 4.25 6.878906 4.328125 6.734375 C 4.414062 6.554688 4.492188 6.808594 4.398438 6.878906 C 4.34375 7.042969 4.265625 7.25 4.386719 7.40625 C 4.425781 7.414062 4.453125 7.5 4.496094 7.523438 C 4.542969 7.550781 4.605469 7.519531 4.613281 7.441406 C 4.675781 7.203125 4.644531 6.949219 4.730469 6.71875 C 4.789062 6.644531 4.871094 6.707031 4.90625 6.773438 C 5.023438 6.910156 5.105469 7.082031 5.246094 7.195312 C 5.378906 7.25 5.488281 7.355469 5.550781 7.484375 C 5.550781 7.589844 5.839844 7.605469 5.753906 7.484375 C 5.671875 7.378906 5.726562 7.261719 5.808594 7.1875 C 5.855469 7.199219 5.84375 7.117188 5.808594 7.148438 C 5.75 7.136719 5.746094 7.03125 5.824219 7.082031 C 5.960938 7.125 5.816406 6.984375 5.765625 6.980469 C 5.652344 6.90625 5.523438 6.828125 5.46875 6.703125 C 5.617188 6.703125 5.769531 6.785156 5.917969 6.738281 C 6.039062 6.671875 6.160156 6.738281 6.203125 6.847656 C 6.296875 6.832031 6.257812 6.738281 6.203125 6.707031 C 6.269531 6.675781 6.320312 6.617188 6.234375 6.566406 C 6.195312 6.511719 6.292969 6.410156 6.167969 6.417969 C 6.171875 6.316406 6.136719 6.230469 6.03125 6.195312 C 5.925781 6.109375 5.617188 6.328125 5.628906 6.128906 C 5.597656 6.015625 5.753906 6.113281 5.796875 6.054688 C 5.839844 5.9375 5.582031 5.953125 5.667969 5.859375 C 5.722656 5.828125 5.984375 5.773438 5.78125 5.734375 C 5.6875 5.765625 5.585938 5.75 5.507812 5.691406 C 5.433594 5.816406 5.226562 5.621094 5.261719 5.84375 C 5.234375 5.925781 5.046875 6.144531 4.996094 5.976562 C 5.035156 5.847656 5.261719 5.808594 5.191406 5.628906 C 5.179688 5.523438 5.089844 5.648438 5.050781 5.640625 C 5.027344 5.574219 5.113281 5.488281 5.175781 5.472656 C 5.292969 5.570312 5.292969 5.355469 5.410156 5.375 C 5.492188 5.355469 5.382812 5.320312 5.359375 5.304688 C 5.382812 5.246094 5.511719 5.214844 5.386719 5.15625 C 5.273438 5.078125 5.191406 5.242188 5.101562 5.25 C 5.015625 5.148438 5.179688 5.101562 5.226562 5.050781 C 5.230469 5.011719 5.132812 5.039062 5.160156 5.003906 C 5.1875 4.960938 5.363281 4.957031 5.277344 4.882812 C 5.144531 4.84375 5.003906 4.851562 4.878906 4.910156 C 4.800781 4.933594 4.78125 5.105469 4.714844 5.097656 C 4.6875 5.019531 4.726562 4.867188 4.621094 4.847656 M 5.207031 6.523438 C 5.300781 6.507812 5.207031 6.667969 5.167969 6.664062 C 5.167969 6.609375 5.027344 6.613281 5.117188 6.5625 C 5.144531 6.542969 5.175781 6.53125 5.207031 6.523438 "/>
<path style=" stroke:none;fill-rule:nonzero;fill:rgb(100%,87.843138%,0%);fill-opacity:1;" d="M 18.753906 12.820312 L 18.925781 13.359375 L 19.449219 13.160156 L 19.140625 13.632812 L 19.621094 13.925781 L 19.0625 13.972656 L 19.140625 14.539062 L 18.753906 14.125 L 18.363281 14.539062 L 18.441406 13.972656 L 17.882812 13.925781 L 18.367188 13.632812 L 18.054688 13.160156 L 18.578125 13.359375 Z M 18.753906 12.820312 "/>
<path style=" stroke:none;fill-rule:nonzero;fill:rgb(100%,87.843138%,0%);fill-opacity:1;" d="M 15.628906 7.804688 L 15.800781 8.347656 L 16.324219 8.144531 L 16.015625 8.621094 L 16.496094 8.910156 L 15.9375 8.960938 L 16.015625 9.523438 L 15.628906 9.109375 L 15.238281 9.523438 L 15.316406 8.960938 L 14.757812 8.910156 L 15.238281 8.621094 L 14.929688 8.144531 L 15.453125 8.347656 Z M 15.628906 7.804688 "/>
<path style=" stroke:none;fill-rule:nonzero;fill:rgb(100%,87.843138%,0%);fill-opacity:1;" d="M 18.753906 4.375 L 18.925781 4.914062 L 19.449219 4.714844 L 19.140625 5.1875 L 19.621094 5.480469 L 19.0625 5.527344 L 19.140625 6.09375 L 18.753906 5.679688 L 18.363281 6.09375 L 18.441406 5.527344 L 17.882812 5.480469 L 18.367188 5.1875 L 18.054688 4.714844 L 18.578125 4.914062 Z M 18.753906 4.375 "/>
<path style=" stroke:none;fill-rule:nonzero;fill:rgb(100%,87.843138%,0%);fill-opacity:1;" d="M 21.53125 6.960938 L 21.703125 7.503906 L 22.226562 7.300781 L 21.917969 7.773438 L 22.402344 8.066406 L 21.839844 8.117188 L 21.917969 8.679688 L 21.53125 8.265625 L 21.144531 8.679688 L 21.21875 8.117188 L 20.660156 8.066406 L 21.144531 7.773438 L 20.832031 7.300781 L 21.359375 7.5 Z M 21.53125 6.960938 "/>
<path style=" stroke:none;fill-rule:nonzero;fill:rgb(100%,87.843138%,0%);fill-opacity:1;" d="M 20.003906 9.5 L 20.140625 9.839844 L 20.496094 9.867188 L 20.222656 10.101562 L 20.308594 10.457031 L 20.003906 10.261719 L 19.695312 10.457031 L 19.78125 10.101562 L 19.507812 9.867188 L 19.867188 9.839844 Z M 20.003906 9.5 "/>
</g>
</svg>

<svg xmlns="http://www.w3.org/2000/svg" width="25" height="px" viewBox="0 0 25 19"><path d="M0 0h25v19H0z" style="fill:green;fill-opacity:1;stroke:none"/><path d="M15.105 9.5c0-1.457-1.168-2.64-2.605-2.64S9.895 8.042 9.895 9.5s1.168 2.64 2.605 2.64 2.605-1.183 2.605-2.64m0 0" style="stroke:none;fill-rule:nonzero;fill:#ffe000;fill-opacity:1"/><path d="M15.457 9.5c0-1.2-.96-2.172-2.145-2.172-1.183 0-2.144.973-2.144 2.172s.96 2.172 2.145 2.172c1.183 0 2.144-.973 2.144-2.172m0 0" style="stroke:none;fill-rule:nonzero;fill:green;fill-opacity:1"/><path d="M7.016 6.86c0-1.528-1.223-2.762-2.727-2.762S1.563 5.332 1.563 6.859s1.222 2.762 2.726 2.762S7.016 8.387 7.016 6.86m0 0" style="stroke:none;fill-rule:nonzero;fill:#ffe000;fill-opacity:1"/><path d="M105 225.987h17.5s.7-1.58-.2-2.369c-1-.79-4.7-.986-3.7-3.848 2-5.724 2.4-3.948 3.7-17.763 1-11.843 1.6-23.685 2-35.527h-2.6s.5 6.71-1 15.494c-1.4 8.783-1.9 9.572-3.5 16.283q-1.2 5.772-3.3 11.25c-1.4 3.947-1.6 4.046-3.8 7.796-2.3 3.552-1.5 2.17-2.7 4.44-.7 1.086-1.4.79-1.9 1.58-.5.789-.5 2.664-.5 2.664Zm0 0" style="fill-rule:nonzero;fill:#802000;fill-opacity:1;stroke-width:1.5;stroke-linecap:butt;stroke-linejoin:miter;stroke:#7b3100;stroke-opacity:1;stroke-miterlimit:4" transform="scale(.03906 .03958)"/><path d="M4.621 4.848a1 1 0 0 1-.047.367 1 1 0 0 0-.09.387c-.07.023-.144-.157-.214-.047.05.144.171.261.25.39.015.04.132.149.062.172-.168-.062-.21-.277-.312-.41a.75.75 0 0 0-.606-.394c-.098.003-.406-.02-.328.144.117.082.266.137.383.227.09.007.246.16.238.214-.156-.062-.227-.14-.39-.207-.227-.086-.536-.035-.665.192-.02.058-.054.23.02.25.086-.137.207-.29.387-.246.14.011-.157.265-.043.215.039-.02.117-.075.18-.082.058 0 .09.039.132.046.09.012.117.051.106.075-.012.023-.04 0-.13.03-.042.016-.066.056-.116.075a.36.36 0 0 1-.204 0c-.144-.059-.379-.05-.421.129 0 .082-.07-.008-.102.031-.027.086-.031.172-.156.164-.078.078-.157.168-.258.227.058.133.285-.137.273-.02-.097.137.055.164.118.059.113-.117.253-.266.417-.14.079.074.125-.044.184-.044.04.102.082.008.125-.02.066-.007.047.09.125.028.16-.105.356-.015.512-.117.168-.078.023.059-.02.113-.074.145-.011.336-.168.422-.066.168.075.395-.066.524-.02.078.18.07.234.101.102 0 0-.23.098-.262.133.079.125-.148.098-.222.015-.157.023-.34.101-.485.086-.18.164.075.07.145-.054.164-.132.371-.011.527.039.008.066.094.11.117.046.028.108-.003.116-.082.063-.238.032-.492.117-.722.06-.074.141-.012.176.054.117.137.2.309.34.422.133.055.242.16.305.29 0 .105.289.12.203 0-.082-.106-.027-.223.055-.298.046.012.035-.07 0-.039-.059-.011-.063-.117.015-.066.137.043-.008-.098-.058-.102-.114-.074-.243-.152-.297-.277.148 0 .3.082.449.035.121-.066.242 0 .285.11.094-.016.055-.11 0-.141.067-.031.117-.09.031-.14-.039-.055.059-.157-.066-.149.004-.102-.031-.188-.137-.223-.105-.086-.414.133-.402-.066-.031-.113.125-.016.168-.074.043-.117-.215-.102-.129-.196.055-.03.316-.086.113-.125a.3.3 0 0 1-.273-.043c-.074.125-.281-.07-.246.153-.028.082-.215.3-.266.133.04-.13.266-.168.195-.348-.011-.106-.101.02-.14.012-.024-.067.062-.153.125-.168.117.097.117-.118.234-.098.082-.02-.027-.055-.05-.07.023-.059.152-.09.027-.149-.114-.078-.196.086-.285.094-.086-.102.078-.148.125-.2.003-.038-.094-.01-.067-.046.027-.043.203-.047.117-.121a.56.56 0 0 0-.398.027c-.078.024-.098.195-.164.188-.027-.078.012-.23-.094-.25m.586 1.675c.094-.015 0 .145-.039.141 0-.055-.14-.05-.05-.101a.3.3 0 0 1 .089-.04" style="stroke:none;fill-rule:nonzero;fill:green;fill-opacity:1"/><path d="m18.754 12.82.172.54.523-.2-.308.473.48.293-.558.047.078.566-.387-.414-.39.414.077-.566-.558-.047.484-.293-.312-.473.523.2ZM15.629 7.805l.172.543.523-.203-.308.476.48.29-.558.05.078.562-.387-.414-.39.414.077-.562-.558-.05.48-.29-.308-.476.523.203ZM18.754 4.375l.172.54.523-.2-.308.473.48.292-.558.047.078.567-.387-.414-.39.414.077-.567-.558-.047.484-.293-.312-.472.523.2ZM21.531 6.96l.172.544.524-.203-.309.472.484.293-.562.051.078.563-.387-.414-.386.414.074-.563-.559-.05.485-.294-.313-.472.527.199ZM20.004 9.5l.137.34.355.027-.273.235.086.355-.305-.195-.309.195.086-.355-.273-.235.36-.027Zm0 0" style="stroke:none;fill-rule:nonzero;fill:#ffe000;fill-opacity:1"/></svg>
